!!!!SEGMENT: pl-kozmzk--mzk-m-346--047_walczynski-franciszek--cantantibus-organis-largo.krn
!!!cenid: 18xx:2842
!!!COM: Walczyński, Franciszek
!!!COM-rismID: pe30021989
!!!CDT: ~1852-1937
!!!CNT: Polish
!!!GTL: Cantantibus organis op. 10
!!!OTL: 47. Largo
!!!PDT: 1898
!!!AGN: Secular
!!!SMS-siglum: PL-KOZmzk
!!!SMS-shelfmark: mzk/m/346
!!!SMS-shelfwork: 047 G
!!!SMS-variant:
!!!SMS-altvar:
!!!NIFC-rismSourceID: 1001109612
!!!NIFC-islandoraID: pl-kozmzk:7453
!!!URL-pdf-islandora: https://repozytorium.nifc.pl/islandora/object/pl-kozmzk%3A7453/datastream/PDF/view
!!!URL-scan: https://polish.musicsources.pl/pl/lokalizacje/galeria/druki-muzyczne/7581 @EN{Scan on Polish Music Sources Website} @PL{Skany w portalu Dziedzictwo Muzyki Polskiej w otwartym dostępie}
!!!ONB-nifc:
!!!AIN: 2 organ
!!!key:
**kern	**kern	**dynam
*part2	*part1	*part1
*staff2	*staff1	*
*Iorgan	*Iorgan	*
*I"[Organo]	*I"[Organo]	*
*clefF4	*clefG2	*
*k[b-e-a-]	*k[b-e-a-]	*
*E-:	*E-:	*
*M3/4	*M3/4	*
=1	=1	=1
*^	*^	*
!	!	!LO:TX:a:t=Largo.	!	!LO:DY:b:t=pf
(>8E-/L	2.rBB	2.rdd	2.rg	p
8G/J	.	.	.	.
4.B-/	.	.	.	.
8G/	.	.	.	.
=2	=2	=2	=2	=2
4An/	(<8C\L	(>8g/L	4e-\	.
.	8F\J	8f/J	.	.
2B-/)	2BB-\)	2f^>/)	2d\	.
=3	=3	=3	=3	=3
!	!	!	!	!LO:DY:b
(>8F/L	2.rGG	2.rdd	2.rg	pp
8G/J	.	.	.	.
4.A-/	.	.	.	.
8D/	.	.	.	.
=4	=4	=4	=4	=4
!	!	!	!	!LO:DY:a
4A-/	(<8BB-\L	4f/	4d\	pp
.	8BBn\J	.	.	.
2G/)	2C\)	2e-^>/	2c\	.
=5	=5	=5	=5	=5
!	!	!	!	!LO:DY:b:t=pf
2.rF	2.rBB	(>8e-/L	2.re	p
.	.	8g/J	.	.
.	.	4.b-/	.	.
.	.	8g/	.	.
=6	=6	=6	=6	=6
(>4c/	(<4AAn\	(>8g/L	4e-\	.
.	.	8f/J)	.	.
2B-/)	2BB-\)	2f^>/)	2d\	.
=7	=7	=7	=7	=7
(>4B-/	(<8A-\L	(>8f/L	8d\L	pp
.	8G\J	8g/J	[<8e-\J	.
2c/	4.F\	4.a-/	2e-\]	.
.	8AA-\	8f/	.	.
=8	=8	=8	=8	=8
8B-/L	4BB-\	4f/	4d\	.
8A-/J	.	.	.	.
2G/)	2E-;<\)	2e-;>/)	2e-\	.
!!LO:LB:g=original
=9	=9	=9	=9	=9
!	!	!	!	!LO:DY:b
2.rF	2.rBB	(>4b-/	2.r	f
.	.	8an/L	.	.
.	.	8b-/	.	.
.	.	8ee-/	.	.
.	.	8b-/J)	.	.
=10	=10	=10	=10	=10
(>4A-/	2.r	(>4cc/	[<2.e-\	.
8G/L	.	8bn/L	.	.
8A-/J	.	8cc/J	.	.
8c/L	.	8ee-/L	.	.
16B-/L	.	16dd/L	.	.
16A-/JJ)	.	16cc/JJ)	.	.
=11	=11	=11	=11	=11
(>8.G/L	4r	(>8.b-/L	(<2e-\]	.
16A-/Jk	.	16cc/Jk	.	.
4G/)	4r	4b-/	.	.
*ped	*	*	*	*
[>4c/	4F\	4a-/	8f\L	.
!	!	!	!	!LO:HP:a
.	.	.	8e-\J	>
=12	=12	=12	=12	=12
(>4c/]	2.G\	2.g/)	2.d\)	.
8Bn/L	.	.	.	.
8An/J	.	.	.	]
4B/)	.	.	.	.
=13	=13	=13	=13	=13
!	!	!	!	!LO:DY:a:rj
4rA	4rAA	(>8f/L	4rA	pp
.	.	8g/J	.	.
!	!	!	!	!LO:DY:b=2:rj
*ped	*	*	*	*
(>2c/	8FF'<\L	4.a-^>/	(<4.f\	pp
.	8GG'<\	.	.	.
.	(<8AA-\	.	.	.
.	8AAn\J)	8f/	8e-\	.
=14	=14	=14	=14	=14
!	!	!	!	!LO:HP:a
8B-/L	4BB-\	4f/	4d\	>
8A-/J	.	.	.	.
2G/)	2E-\	2e-/)	2B-\)	]
=15	=15	=15	=15	=15
!	!	!	!	!LO:DY:b
(>8F/L	2.r	2.rdd	2.rg	pp
8G/J	.	.	.	.
4.A-^>/	.	.	.	.
8D/	.	.	.	.
=16	=16	=16	=16	=16
*	*	*	*	*^
!	!	!	!	!LO:DY:b	!LO:DY:b=2
!	!	!	!	!LO:HP:a	!
*ped	*	*	*	*	*
4F/	8rBB	4a-/	8c\L	ppp >	ppp
.	8BB-\	.	8d\J	.	.
2E-/)	2EE-;<\	2g;>/	2e-\	]	.
*	*	*	*	*v	*v
*v	*v	*	*	*
*	*v	*v	*
==	==	==
*-	*-	*-
!!!system-decoration: {(s1,s2)}
!!!RDF**kern: > = above
!!!RDF**kern: < = below
!!!EED: Antoni Szymański
!!!EEV: 2021-08-09
!!!ENC: Anastazja Marusiak
!!!END: 2021-07-28
